svg/weather/rainstorm_fill.svg

<?xml version="1.0" encoding="UTF-8"?>
<svg width="24px" height="24px" viewBox="0 0 24 24" version="1.1" xmlns="http://www.w3.org/2000/svg" xmlns:xlink="http://www.w3.org/1999/xlink">
    <title>rainstom_fill</title>
    <g id="Icon" stroke="none" stroke-width="1" fill="none" fill-rule="evenodd">
        <g id="Weather" transform="translate(-529.000000, -240.000000)" fill-rule="nonzero">
            <g id="rainstom_fill" transform="translate(529.000000, 240.000000)">
                <path d="M24,0 L24,24 L0,24 L0,0 L24,0 Z M12.5935,23.2578 L12.5819,23.2595 L12.5109,23.295 L12.4919,23.2987 L12.4767,23.295 L12.4057,23.2595 C12.3958,23.2564 12.387,23.259 12.3821,23.2649 L12.378,23.2758 L12.3609,23.7031 L12.3659,23.7235 L12.3769,23.7357 L12.4805,23.8097 L12.4953,23.8136 L12.5071,23.8097 L12.6107,23.7357 L12.6233,23.7197 L12.6267,23.7031 L12.6096,23.2758 C12.6076,23.2657 12.601,23.2593 12.5935,23.2578 Z M12.8584,23.1453 L12.8445,23.1473 L12.6598,23.2397 L12.6499,23.2499 L12.6472,23.2611 L12.6651,23.6906 L12.6699,23.7034 L12.6784,23.7105 L12.8793,23.8032 C12.8914,23.8069 12.9022,23.803 12.9078,23.7952 L12.9118,23.7812 L12.8777,23.1665 C12.8753,23.1546 12.8674,23.147 12.8584,23.1453 Z M12.143,23.1473 C12.1332,23.1424 12.1222,23.1453 12.1156,23.1526 L12.1099,23.1665 L12.0758,23.7812 C12.0751,23.7927 12.0828,23.8019 12.0926,23.8046 L12.1083,23.8032 L12.3092,23.7105 L12.3186,23.7024 L12.3225,23.6906 L12.3404,23.2611 L12.3372,23.2485 L12.3278,23.2397 L12.143,23.1473 Z" id="MingCute"></path>
                <path d="M16.8679,18.983 C17.4014,19.1259 17.718,19.6743 17.575,20.2077 L17.3162,21.1737 C17.1733,21.7071 16.6249,22.0237 16.0914,21.8808 C15.558,21.7378 15.2414,21.1895 15.3843,20.656 L15.6432,19.6901 C15.7861,19.1566 16.3344,18.84 16.8679,18.983 Z M9.86787,18.9831 C10.4013,19.1261 10.7179,19.6744 10.575,20.2079 L10.3162,21.1738 C10.1732,21.7072 9.62488,22.0238 9.09142,21.8809 C8.55795,21.7379 8.24137,21.1896 8.38431,20.6561 L8.64313,19.6902 C8.78607,19.1567 9.33441,18.8402 9.86787,18.9831 Z M14.0176,16.5681 C14.5129929,16.7008857 14.8213648,17.1831393 14.7483966,17.6785051 L14.7247,17.7929 L14.2071,19.7247 C14.0642,20.2582 13.5158,20.5748 12.9824,20.4318 C12.4870071,20.2991071 12.1786352,19.816774 12.2516034,19.3214763 L12.2753,19.2071 L12.7929,17.2752 C12.9358,16.7418 13.4842,16.4252 14.0176,16.5681 Z M7.01764,16.5681 C7.55111,16.7111 7.86769,17.2594 7.72475,17.7929 L7.20711,19.7247 C7.06417,20.2582 6.51583,20.5748 5.98237,20.4318 C5.4489,20.2889 5.13232,19.7405 5.27526,19.2071 L5.7929,17.2752 C5.93584,16.7418 6.48418,16.4252 7.01764,16.5681 Z M10.9032,15.1194 C11.4366,15.2623 11.7532,15.8107 11.6103,16.3442 L11.3514,17.3101 C11.2085,17.8435 10.6602,18.1601 10.1267,18.0172 C9.59323,17.8742 9.27664,17.3259 9.41959,16.7924 L9.67841,15.8265 C9.82135,15.293 10.3697,14.9765 10.9032,15.1194 Z M17.9032,15.1193 C18.4366,15.2622 18.7532,15.8106 18.6103,16.344 L18.3515,17.31 C18.2085,17.8434 17.6602,18.16 17.1267,18.0171 C16.5933,17.8741 16.2767,17.3258 16.4196,16.7923 L16.6784,15.8264 C16.8214,15.2929 17.3697,14.9763 17.9032,15.1193 Z M11.5,2 C14.2856,2 16.66,3.75154 17.5856,6.21198 C20.13,6.90766 22,9.23462 22,12 C22,13.4481 21.487,14.7764 20.6328,15.813 C20.5219,14.5967 19.6694,13.522 18.4208,13.1874 C17.0067,12.8085 15.5577,13.506 14.9438,14.7776 C14.813,14.7215 14.6767,14.6742 14.5353,14.6363 C14.0978,14.519 13.657,14.5048 13.2386,14.5788 C12.8543,13.917 12.2184,13.4013 11.4208,13.1876 C10.0067,12.8087 8.55779,13.506 7.94378,14.7776 C7.81303,14.7215 7.6767,14.6742 7.53529,14.6363 C5.93489,14.2074 4.28988,15.1572 3.86105,16.7576 L3.86105,16.8921 C2.72597,15.9756 2,14.5726 2,13 C2,10.9486 3.23468,9.18749 5.00053,8.41614 C5.04543,4.86494 7.93814,2 11.5,2 Z" id="形状" fill="#09244B"></path>
            </g>
        </g>
    </g>
</svg>

<svg xmlns="http://www.w3.org/2000/svg" width="24" height="24"><g fill="none" fill-rule="nonzero"><path d="M24 0v24H0V0h24ZM12.594 23.258l-.012.002-.071.035-.02.004-.014-.004-.071-.036c-.01-.003-.019 0-.024.006l-.004.01-.017.428.005.02.01.013.104.074.015.004.012-.004.104-.074.012-.016.004-.017-.017-.427c-.002-.01-.009-.017-.016-.018Zm.264-.113-.014.002-.184.093-.01.01-.003.011.018.43.005.012.008.008.201.092c.012.004.023 0 .029-.008l.004-.014-.034-.614c-.003-.012-.01-.02-.02-.022Zm-.715.002a.023.023 0 0 0-.027.006l-.006.014-.034.614c0 .012.007.02.017.024l.015-.002.201-.093.01-.008.003-.011.018-.43-.003-.012-.01-.01-.184-.092Z"/><path fill="#09244B" d="M16.868 18.983a1 1 0 0 1 .707 1.225l-.259.966a1 1 0 0 1-1.932-.518l.26-.966a1 1 0 0 1 1.224-.707Zm-7 0a1 1 0 0 1 .707 1.225l-.259.966a1 1 0 0 1-1.932-.518l.26-.966a1 1 0 0 1 1.224-.707Zm4.15-2.415a1 1 0 0 1 .73 1.11l-.023.115-.518 1.932a1 1 0 0 1-1.955-.404l.023-.114.518-1.932a1 1 0 0 1 1.225-.707Zm-7 0a1 1 0 0 1 .707 1.225l-.518 1.932a1 1 0 1 1-1.932-.518l.518-1.932a1 1 0 0 1 1.225-.707Zm3.885-1.449a1 1 0 0 1 .707 1.225l-.259.966a1 1 0 1 1-1.931-.518l.258-.966a1 1 0 0 1 1.225-.707Zm7 0a1 1 0 0 1 .707 1.225l-.258.966a1 1 0 0 1-1.932-.518l.258-.966a1 1 0 0 1 1.225-.707ZM11.5 2a6.502 6.502 0 0 1 6.086 4.212 6.002 6.002 0 0 1 3.047 9.601 3.001 3.001 0 0 0-5.69-1.035 3.017 3.017 0 0 0-1.704-.2 3 3 0 0 0-5.295.199 3 3 0 0 0-4.083 1.98v.135a5 5 0 0 1 1.14-8.476A6.5 6.5 0 0 1 11.5 2Z"/></g></svg>
